X:1
T:Voir est beaucoup
T:Orlando di Lasso
T:Voir est beaucoup
C:Orlando di Lasso
%%score [ 1 2 3 4 ]
L:1/8
Q:1/4=144
M:2/2
K:C
V:1 treble nm="Superius" snm="S"
V:2 alto1 nm="Contratenor" snm="C"
V:3 alto nm="Tenor" snm="T"
V:4 tenor nm="Bassus" snm="B"
V:1
 x8 | x8 |[K:Bb][M:4/2] c6 B2 c2 d2 e4- | e4 d4 c8 | =B4 d4 d4 B4 | c4 d4 G8 | d8 e4 e4 | %7
w: ||Voir _ _ _ _|_ est beau-|* coup, le tai-|re en- co- re|plus, _ le|
 d6 c2 d4 e4- | e2 d2 c8 =B4 | c16 | z4 c4 c4 c4 | B4 G6 A2 B2 c2 | d4 e4 d4 c4- | c4 =B4 c8 | %14
w: tai- re en- co- re|_ _ _ _|plus,|car si le|tai- re à _ _ _|_ voir se veut|_ ad- join-|
 =B8 z8 | B8 c4 d4 | G8 z4 G4 | B6 c2 d4 e4 | d4 c4 B4 A4- | A2 G2 G8 ^F4 | G4 z2 G2 A4 c4 | %21
w: dre.|Le voir per-|dra, car|tai- re peut con-|join- * * *||dre. Ce que par|
 =B4 z2 B2 c4 e4 | d4 B4 B4 B4 | c8 d8 | G4 e4 d2 c2 B2 _A2 | G2 F2 E2 D2 C4 d4- | d2 c2 c8 =B4 | %27
w: voir, Ce que par|voir pour- ra ê-|tre con-|fus, pour- ra _ _ _|_ _ _ _ _ ê-|* * tre con-|
 c4 z2 G2 A4 c4 | =B4 z2 B2 c4 e4 | d4 B4 B4 B4 | c8 d8 | G4 e4 d2 c2 B2 _A2 | G2 F2 E2 D2 C4 d4- | %33
w: fus, Ce que par|voir, Ce que par|voir pour- ra ê-|tre con-|fus, pour- ra _ _ _|_ _ _ _ _ ê-|
 d2 c2 c8 =B4 | !fermata!c16 |] %35
w: * * tre con-|fus.|
V:2
 x8 | x8 |[K:Bb][M:4/2][K:treble] G16 | B8 A8 | G12 G4 | F4 D4 E4 E4 | D8 z4 G4 | G4 F4 B8- | %8
w: ||Voir|est beau-|coup, le|tai- re en- co- re|plus, le|tai- re en- co-|
 B4 A4 G8 | E8 E4 F4 | G8 G4 G4- | G4 B8 G4 | A4 B8 A4- | A4 G8 F4 | G2 D4 E2 F8 | B,4 E8 D4 | %16
w: * re plus,|car si le|tai- re à voir|_ se veut|ad- join- *||dre. Le voir per-||
 E2 B,2 E2 F2 G4 E4 | D4 G4 F4 E4 | B4 G8 F4 | E4 C4 D8 | B,4 D4 F4 G4 | G4 G8 A4 | B4 F4 G4 G4 | %23
w: dra, car tai- re peut con-|join- dre. car tai-|re peut con-|join- * *|dre. Ce que par|voir, Ce que|par voir pour- ra|
 A4 G4 F8 | =E4 _E4 F4 G4- | G4 B4 _A8 | G16 | z4 E4 F4 G4- | G2 _A2 G8 =A4 | B4 F4 G4 G4 | %30
w: ê- tre con-|fus, pour- ra ê-|* tre con-|fus,|Ce que par|_ voir, Ce que|par voir pour- ra|
 A4 G4 F8 | =E4 _E4 F4 G4- | G4 B4 _A8 | G16- | G16 |] %35
w: ê- tre con-|fus, pour- ra ê-|* tre con-|fus.|_|
V:3
 x8 | x8 |[K:Bb][M:4/2][K:treble-8] e6 d2 e2 f2 g4- | g4 f4 f8 | d4 =B4 B4 G4 | A4 =B6 G2 c4- | %6
w: ||Voir _ _ _ _|_ est beau-|coup, le tai- re en-|co- * re plus,|
 c4 =B4 c4 G2 A2 | B2 c2 d2 e2 f4 g4- | g4 f2 e2 d8 | c16 | z4 e4 e4 e4 | d4 B4 B2 c2 d2 e2 | %12
w: _ le tai- * *|* * * * re en- co-|* * * re|plus,|car si le|tai- re à voir _ _ _|
 f4 g4 f8 | e4 d8 c4 | d4 =B4 c4 d4 | G4 B4 _A8 | B4 c4 G8 | z4 G4 B4 c4 | d4 e4 d6 c2 | %19
w: _ se veut|ad- join- *|dre. Le voir per-|dra, Le voir|per- * dra,|car tai- re|peut con- join- *|
 B4 A2 G2 A8 | G4 z2 B2 c4 e4 | d4 d4 e4 e4 | f4 d4 e4 d4- | d2 c2 c8 =B4 | c8 B4 B4 | e4 g8 f4- | %26
w: |dre. Ce que par|voir pour- ra ê-|tre con- * *||fus, pour- ra|ê- * *|
 f4 e4 d8 | c4 c4 c4 e4 | d4 d4 e4 e4 | f4 d4 e4 d4- | d2 c2 c8 =B4 | c8 B4 B4 | e4 g8 f4- | %33
w: * tre con-|fus, Ce que par|voir pour- ra ê-|tre con- * *||fus, pour- ra|ê- * *|
 f4 e4 d8 | c16 |] %35
w: * tre con-|fus.|
V:4
 x8 | x8 |[K:Bb][M:4/2][K:bass] C16 | B,8 F,8 | G,16 | z4 G,4 G,4 E,4 | F,4 G,4 C,2 D,2 E,2 F,2 | %7
w: ||Voir|est beau-|coup,|le tai- re en-|co- re plus, _ _ _|
 G,2 A,2 B,6 A,2 G,2 F,2 | E,4 F,4 G,8 | z4 _A,4 A,4 A,4 | G,4 C,4 C,2 D,2 E,2 F,2 | G,12 G,4 | %12
w: _ _ _ _ _ _||car si le|tai- re à voir _ _ _|_ se|
 F,4 E,4 B,4 F,4 | G,8 _A,8 | G,4 z2 G,2 _A,4 B,4- | B,2 E,2 G,4 F,8 | E,4 C,4 E,6 F,2 | %17
w: veut ad- join- *||dre. Le voir per-||dra, car tai- re|
 G,4 E,4 D,4 C,4 | G,4 C,4 G,4 D,4 | E,8 D,8 | z4 G,4 F,4 C,4 | G,4 G,4 C4 C4 | B,4 B,4 E,4 G,4 | %23
w: peut con- join- *||* dre.|Ce que par|voir pour- ra ê-|tre con- * *|
 F,4 E,4 D,8 | C,8 z4 E,4 | E,4 E,4 F,8 | G,16 | C,4 C,4 F,4 C,4 | G,4 G,4 C4 C4 | %29
w: |fus, pour-|ra ê- tre|con-|fus, Ce que par|voir pour- ra ê-|
 B,4 B,4 E,4 G,4 | F,4 E,4 D,8 | C,8 z4 E,4 | E,4 E,4 F,8 | G,16 | C,16 |] %35
w: tre con- * *||fus, pour-|ra ê- tre|con-|fus.|

